icons/2_Variations/HelpSpot bg.var.svg

<svg width="1024" height="1024" fill="none" xmlns="http://www.w3.org/2000/svg"><g clip-path="url(#a)"><path d="M512 1024c282.77 0 512-229.23 512-512S794.77 0 512 0 0 229.23 0 512s229.23 512 512 512Z" fill="#728DBE"/><path d="M128 430.94c0-5.3 2.95-8.24 8.24-8.24h8.44c5.49 0 8.24 2.95 8.24 8.24v40.44a56.89 56.89 0 0 1-.59 8.44h.39c4.9-9.62 17.47-20.22 34.74-20.22 22.18 0 34.93 11.58 34.93 38.08v56.13c0 5.49-2.95 8.24-8.24 8.24h-8.44c-5.493 0-8.24-2.747-8.24-8.24v-51c0-12.17-3.14-20.41-15.7-20.41-17.5 0-28.85 14.12-28.85 33.16v38.27c0 5.493-2.747 8.24-8.24 8.24h-8.44c-5.3 0-8.24-2.75-8.24-8.24V430.94Zm162.32 28.66c28.46 0 44.35 20.22 44.35 47.69a8.68 8.68 0 0 1-8.64 8.44H265c1.57 18.06 14.92 27.47 30 27.47a41.372 41.372 0 0 0 21.59-6.47c4.9-2.35 8.44-1.76 11 2.75l2.36 3.93c2.35 4.51 1.57 8.44-2.75 11a63.29 63.29 0 0 1-34 10c-33.17 0-53.77-23.94-53.77-52.4.05-30.82 20.86-52.41 50.89-52.41Zm19.59 41c-.34-13.92-8.79-22.19-20.18-22.19-12.76 0-21.79 8.83-24.14 22.18l44.32.01Zm42.62-69.68c0-5.3 2.75-8.24 8-8.24h8.64c5.3 0 8 2.95 8 8.24v97.95c0 9.79 4.12 11.58 7.85 12 3.53.39 6.08 2.55 6.08 7.07v6.68c0 5.1-2.35 8.44-8.24 8.44-13.35 0-30.42-3.53-30.42-32.19l.09-99.95Zm55 39.25c0-5.3 2.95-8.24 8.24-8.24H422c5.3 0 8 2.95 8 6.87v4.51c0 2.16-.2 3.93-.2 3.93h.39s8.83-17.66 32.18-17.66C489.54 459.6 507 481 507 512c0 31.83-19.59 52.4-45.93 52.4-20.81 0-28.85-15.3-28.85-15.3h-.39c.412 2.861.609 5.749.59 8.64v35.33c0 5.493-2.747 8.24-8.24 8.24h-8.46c-5.3 0-8.24-2.75-8.24-8.24l.05-122.9Zm49.07 73.21c13.74 0 25.12-11.19 25.12-31 0-19-10.21-31.4-24.73-31.4-13 0-25.3 9.42-25.3 31.6 0 15.52 8.6 30.82 24.89 30.82l.02-.02Zm70.82 2.95 1.57-2c1.77-2.36 3.93-2.55 6.68-.82a42.713 42.713 0 0 0 26.12 9c11 0 20-5.49 20-15.9 0-22.18-52.79-15.51-52.79-48.08 0-18.25 15.51-27.67 33.56-27.67 14.13 0 23 5.1 27.08 8 2.55 1.57 2.95 3.93 1.37 6.47l-1.37 2.16c-1.57 2.75-3.93 2.95-6.67 1.37a36.998 36.998 0 0 0-21.22-6.28c-10.41 0-19.43 4.51-19.43 15.31 0 22.76 52.6 15.51 52.6 48.48 0 16.32-13.74 27.87-33.37 27.87-17.27 0-28.46-7.26-33.37-11.38-2.32-1.61-2.54-3.96-.77-6.51l.01-.02Zm90.87-78.11c0-3.14 1.57-4.9 4.71-4.9h3.14c3.14 0 4.71 1.77 4.71 4.51v7.07a35.136 35.136 0 0 1-.59 6.68h.39S639.08 461 665.19 461c26.49 0 43 21.22 43 51.81 0 31.2-18.64 51.62-44.35 51.62a35.833 35.833 0 0 1-19.179-5.294 35.835 35.835 0 0 1-13.401-14.706h-.39c.558 2.845.833 5.74.82 8.64v43.33c0 3.14-1.76 4.9-4.9 4.9H623c-3.14 0-4.71-1.77-4.71-4.9V468.22Zm44.16 84.2c17.66 0 32-14.52 32-39.64 0-24.14-13-39.65-31.2-39.65-16.49 0-32 11.78-32 39.84-.02 19.84 10.98 39.47 31.19 39.47l.01-.02ZM777.26 461c28.85 0 52.24 22 52.24 51.23 0 29.83-23.36 52.24-52 52.24-28.85 0-52.24-22.37-52.24-52.24-.02-29.23 23.34-51.23 52-51.23Zm.2 91.46c21 0 38.27-17.27 38.27-40.24 0-22.37-17.27-39.25-38.27-39.25-21.22 0-38.47 16.88-38.47 39.25 0 23 17.26 40.25 38.46 40.25l.01-.01Zm78.31-77.16h-8.24c-3.14 0-4.71-1.57-4.71-4.71V469c0-3.14 1.57-4.9 4.71-4.9H856V441c0-3.14 1.76-4.9 4.9-4.9h3.53c3.14 0 4.71 1.76 4.71 4.9v23.16h20c3.14 0 4.9 1.76 4.9 4.9v1.57c0 3.14-1.77 4.71-4.9 4.71h-20v49.46c0 22.76 13.93 25.52 21.59 25.91 3.93.39 5.3 1.57 5.3 4.9v2.55c0 3.14-1.57 4.71-5.49 4.71-21.59 0-34.74-13.15-34.74-36.31l-.03-51.26Z" fill="#fff"/></g><defs><clipPath id="a"><path fill="#fff" d="M0 0h1024v1024H0z"/></clipPath></defs></svg>

<svg width="1024" height="1024" viewBox="0 0 1024 1024" fill="none" xmlns="http://www.w3.org/2000/svg">
<g clip-path="url(#clip0_3_107)">
<path d="M512 1024C794.77 1024 1024 794.77 1024 512C1024 229.23 794.77 0 512 0C229.23 0 0 229.23 0 512C0 794.77 229.23 1024 512 1024Z" fill="#728DBE"/>
<path d="M128 430.94C128 425.64 130.95 422.7 136.24 422.7H144.68C150.17 422.7 152.92 425.65 152.92 430.94V471.38C152.933 474.204 152.736 477.025 152.33 479.82H152.72C157.62 470.2 170.19 459.6 187.46 459.6C209.64 459.6 222.39 471.18 222.39 497.68V553.81C222.39 559.3 219.44 562.05 214.15 562.05H205.71C200.217 562.05 197.47 559.303 197.47 553.81V502.81C197.47 490.64 194.33 482.4 181.77 482.4C164.27 482.4 152.92 496.52 152.92 515.56V553.83C152.92 559.323 150.173 562.07 144.68 562.07H136.24C130.94 562.07 128 559.32 128 553.83V430.94ZM290.32 459.6C318.78 459.6 334.67 479.82 334.67 507.29C334.608 509.543 333.671 511.684 332.059 513.259C330.446 514.834 328.284 515.72 326.03 515.73H265C266.57 533.79 279.92 543.2 295 543.2C302.657 543.083 310.131 540.843 316.59 536.73C321.49 534.38 325.03 534.97 327.59 539.48L329.95 543.41C332.3 547.92 331.52 551.85 327.2 554.41C317.05 560.913 305.254 564.383 293.2 564.41C260.03 564.41 239.43 540.47 239.43 512.01C239.48 481.19 260.29 459.6 290.32 459.6ZM309.91 500.6C309.57 486.68 301.12 478.41 289.73 478.41C276.97 478.41 267.94 487.24 265.59 500.59L309.91 500.6ZM352.53 430.92C352.53 425.62 355.28 422.68 360.53 422.68H369.17C374.47 422.68 377.17 425.63 377.17 430.92V528.87C377.17 538.66 381.29 540.45 385.02 540.87C388.55 541.26 391.1 543.42 391.1 547.94V554.62C391.1 559.72 388.75 563.06 382.86 563.06C369.51 563.06 352.44 559.53 352.44 530.87L352.53 430.92ZM407.53 470.17C407.53 464.87 410.48 461.93 415.77 461.93H422C427.3 461.93 430 464.88 430 468.8V473.31C430 475.47 429.8 477.24 429.8 477.24H430.19C430.19 477.24 439.02 459.58 462.37 459.58C489.54 459.6 507 481 507 512C507 543.83 487.41 564.4 461.07 564.4C440.26 564.4 432.22 549.1 432.22 549.1H431.83C432.242 551.961 432.439 554.849 432.42 557.74V593.07C432.42 598.563 429.673 601.31 424.18 601.31H415.72C410.42 601.31 407.48 598.56 407.48 593.07L407.53 470.17ZM456.6 543.38C470.34 543.38 481.72 532.19 481.72 512.38C481.72 493.38 471.51 480.98 456.99 480.98C443.99 480.98 431.69 490.4 431.69 512.58C431.69 528.1 440.29 543.4 456.58 543.4L456.6 543.38ZM527.42 546.33L528.99 544.33C530.76 541.97 532.92 541.78 535.67 543.51C543.139 549.321 552.327 552.486 561.79 552.51C572.79 552.51 581.79 547.02 581.79 536.61C581.79 514.43 529 521.1 529 488.53C529 470.28 544.51 460.86 562.56 460.86C576.69 460.86 585.56 465.96 589.64 468.86C592.19 470.43 592.59 472.79 591.01 475.33L589.64 477.49C588.07 480.24 585.71 480.44 582.97 478.86C576.703 474.651 569.298 472.459 561.75 472.58C551.34 472.58 542.32 477.09 542.32 487.89C542.32 510.65 594.92 503.4 594.92 536.37C594.92 552.69 581.18 564.24 561.55 564.24C544.28 564.24 533.09 556.98 528.18 552.86C525.86 551.25 525.64 548.9 527.41 546.35L527.42 546.33ZM618.29 468.22C618.29 465.08 619.86 463.32 623 463.32H626.14C629.28 463.32 630.85 465.09 630.85 467.83V474.9C630.867 477.14 630.669 479.377 630.26 481.58H630.65C630.65 481.58 639.08 461 665.19 461C691.68 461 708.19 482.22 708.19 512.81C708.19 544.01 689.55 564.43 663.84 564.43C657.076 564.511 650.426 562.676 644.661 559.136C638.895 555.597 634.249 550.498 631.26 544.43H630.87C631.428 547.275 631.703 550.17 631.69 553.07V596.4C631.69 599.54 629.93 601.3 626.79 601.3H623C619.86 601.3 618.29 599.53 618.29 596.4V468.22ZM662.45 552.42C680.11 552.42 694.45 537.9 694.45 512.78C694.45 488.64 681.45 473.13 663.25 473.13C646.76 473.13 631.25 484.91 631.25 512.97C631.23 532.81 642.23 552.44 662.44 552.44L662.45 552.42ZM777.26 461C806.11 461 829.5 483 829.5 512.23C829.5 542.06 806.14 564.47 777.5 564.47C748.65 564.47 725.26 542.1 725.26 512.23C725.24 483 748.6 461 777.26 461ZM777.46 552.46C798.46 552.46 815.73 535.19 815.73 512.22C815.73 489.85 798.46 472.97 777.46 472.97C756.24 472.97 738.99 489.85 738.99 512.22C738.99 535.22 756.25 552.47 777.45 552.47L777.46 552.46ZM855.77 475.3H847.53C844.39 475.3 842.82 473.73 842.82 470.59V469C842.82 465.86 844.39 464.1 847.53 464.1H856V441C856 437.86 857.76 436.1 860.9 436.1H864.43C867.57 436.1 869.14 437.86 869.14 441V464.16H889.14C892.28 464.16 894.04 465.92 894.04 469.06V470.63C894.04 473.77 892.27 475.34 889.14 475.34H869.14V524.8C869.14 547.56 883.07 550.32 890.73 550.71C894.66 551.1 896.03 552.28 896.03 555.61V558.16C896.03 561.3 894.46 562.87 890.54 562.87C868.95 562.87 855.8 549.72 855.8 526.56L855.77 475.3Z" fill="white"/>
</g>
<defs>
<clipPath id="clip0_3_107">
<rect width="1024" height="1024" fill="white"/>
</clipPath>
</defs>
</svg>
